X:1
T:Calcutta
T:H. B. Walmisley
T:Calcutta
C:H. B. Walmisley
%%score { ( 1 2 ) | ( 3 4 ) }
L:1/8
Q:1/4=200
M:3/2
K:Eb
V:1 treble nm="Piano" snm="Pno."
V:2 treble 
V:3 bass 
V:4 bass 
V:1
 E4 G4 F4 | E8 c4 | B8 A4 | G12 | A4 c4 d4 | e8 B4 | (B4 A4) G4 | F12 | d4 =B4 G4 | e8 G4 | c8 B4 | %11
 =A12 | c4 c4 F4 | A8 B4 | c8 c4 | B12 | B4 G4 F4 | E8 B4 | (_d4 c4) B4 | c12 | d4 c4 B4 | e8 G4 | %22
 (F4 A4) (G2 F2) | E12 |] %24
V:2
 B,4 E4 D4 | E8 E4 | (E4 D2 C2) D4 | E12 | E4 E4 F4 | E8 E4 | F8 E4 | D12 | F4 F4 F4 | E8 F4 | %10
 (E4 G4) G4 | F12 | E4 E4 E4 | D8 D4 | (G4 F4) F4 | F12 | E4 E4 D4 | E8 E4 | E8 E4 | E12 | %20
 F4 F4 F4 | E8 =E4 | (F4 E4) D4 | E12 |] %24
V:3
 G,4 B,4 A,4 | G,8 F,4 | F,8 B,4 | B,12 | C4 C4 B,4 | B,8 B,4 | B,8 B,4 | B,12 | =B,4 D4 B,4 | %9
 (C4 G,4) =B,4 | (C4 E4) _D4 | C12 | =A,4 B,4 C4 | D8 B,4 | (B,4 =A,4) E4 | D12 | B,4 B,4 A,4 | %17
 (G,4 B,4) G,4 | (B,4 A,4) G,4 | A,12 | B,4 C4 D4 | B,8 B,4 | (A,4 C4) A,4 | G,12 |] %24
V:4
 E,4 B,,4 B,,4 | C,8 A,,4 | B,,8 B,,4 | E,12 | C,4 A,,4 A,4 | G,8 G,4 | D,8 E,4 | B,12 | %8
 G,4 G,4 G,4 | C,8 D,4 | E,8 =E,4 | F,12 | F,4 G,4 =A,4 | B,8 G,4 | (E,4 F,4) F,4 | B,12 | %16
 G,4 E,4 F,4 | G,8 E,4 | (G,,4 A,,4) E,4 | A,12 | A,4 A,4 A,4 | G,8 C,4 | (F,4 A,,4) B,,4 | E,12 |] %24

